X:1
T: Nancy and Ewan's Wedding March
C: Ewan Macpherson
R:Jig
Q:180
K:A
M:6/8
L:1/16
e2|A2B2c2 e4c2|f4f2 f2e2d2|c4e2 a4c2|B2G2B2 B4e2|A2B2c2 e4c2|f4f2 f2e2d2|c4e2 f2a2c2|B2G2B2 A4e2|
A2B2c2 e4c2|f4f2 f2e2d2|c4e2 a4c2|B2G2B2 B4e2|A2B2c2 e4c2|f4f2 f2e2d2|c4e2 f2a2c2|B2G2B2 A4d2|
c4e2 a4e2|f4f2 f2a2d2|c4e2 a4c2|B2G2B2 B4d2|c4e2 a4e2|f4f2 f2a2d2|c4e2 f2a2c2|B2G2B2 A4d2|
c4e2 a4e2|f4f2 f2a2d2|c4e2 a4c2|B2G2B2 B4e2|A2B2c2 d2c2d2|e4e2 a4d2|c4e2 f2a2c2|B2G2B2 A4||
